images/twitter.svg

<svg width="22" height="18" viewBox="0 0 22 18" fill="none" xmlns="http://www.w3.org/2000/svg">
<path d="M6.94632 17.5273C15.1934 17.5273 19.7034 10.8122 19.7034 4.98913C19.7034 4.7984 19.6994 4.60853 19.6907 4.41952C20.5662 3.7975 21.3271 3.02126 21.9272 2.13762C21.1239 2.48859 20.2594 2.72485 19.3524 2.83138C20.2781 2.28582 20.9888 1.42282 21.3241 0.39402C20.4578 0.898768 19.4984 1.26562 18.477 1.46369C17.6588 0.607146 16.494 0.0714111 15.2042 0.0714111C12.7282 0.0714111 10.7203 2.0449 10.7203 4.4775C10.7203 4.8233 10.7596 5.15966 10.8366 5.4823C7.11013 5.29801 3.8058 3.54449 1.59436 0.878146C1.2093 1.52937 0.987272 2.28585 0.987272 3.09301C0.987272 4.62187 1.77883 5.97155 2.98253 6.76113C2.24692 6.73879 1.5559 6.54032 0.951926 6.20998C0.951266 6.22847 0.951263 6.2465 0.951263 6.26626C0.951263 8.4004 2.49677 10.1822 4.54834 10.586C4.17158 10.687 3.77518 10.7411 3.36606 10.7411C3.07759 10.7411 2.79655 10.7132 2.52338 10.6616C3.09419 12.4125 4.74941 13.6867 6.71182 13.7223C5.17724 14.9045 3.24411 15.6086 1.14311 15.6086C0.781645 15.6086 0.42456 15.5883 0.0736084 15.5476C2.05794 16.7976 4.41414 17.527 6.94656 17.527" fill="#0A033C"/>
</svg>

<svg xmlns="http://www.w3.org/2000/svg" width="22" height="18" fill="none"><path fill="#0A033C" d="M6.946 17.527c8.247 0 12.757-6.715 12.757-12.538 0-.19-.004-.38-.012-.57a9.031 9.031 0 0 0 2.236-2.281 9.06 9.06 0 0 1-2.575.693A4.437 4.437 0 0 0 21.324.394a9.089 9.089 0 0 1-2.847 1.07A4.515 4.515 0 0 0 15.204.07c-2.476 0-4.484 1.974-4.484 4.407 0 .345.04.682.117 1.004A12.806 12.806 0 0 1 1.594.878a4.337 4.337 0 0 0-.607 2.215c0 1.529.792 2.879 1.996 3.668A4.51 4.51 0 0 1 .952 6.21v.056c0 2.134 1.545 3.916 3.596 4.32a4.56 4.56 0 0 1-2.025.076c.571 1.75 2.226 3.025 4.189 3.06a9.095 9.095 0 0 1-5.569 1.887c-.361 0-.718-.02-1.07-.061a12.854 12.854 0 0 0 6.874 1.979"/></svg>
